X: 30815
T: Otter's Holt, The
R: reel
M: 4/4
K: Bminor
de|:fBBA BAFB|A2FB ABde|fBBA BAFA|B/c/dcA B2de|
fBBA BAFB|A2FB ABde|fbba fafe|1 d2c2 B2de:|2 d2c2 B2Bc||
|:d2fd adfa|b2af afdc|d2fd adfa|b2af e2dc|
d2fd adfa|bfaf afde|fBBA BAFA|1 B/c/dcA B2Bc:|2 B/c/dcA B2de||

